careers/base/static/css/protocol/img/icons/social/instagram/brand.svg

<svg width="16px" height="16px" viewBox="0 0 16 16" xmlns="http://www.w3.org/2000/svg"><title>icon/social/instagram/brand</title><g id="icon/social/instagram/brand" stroke="none" stroke-width="1" fill="none" fill-rule="evenodd"><path d="M7.99749206,0.00504761905 C10.1694603,0.00504761905 10.4418095,0.0142539683 11.2948254,0.0531746032 C12.1460635,0.092 12.7274286,0.227206349 13.236127,0.424920635 C13.7620317,0.629269841 14.2080317,0.902730159 14.6526667,1.34733333 C15.0972698,1.79196825 15.3707302,2.23796825 15.5751111,2.76387302 C15.7727937,3.27257143 15.908,3.85393651 15.9468254,4.7051746 C15.985746,5.55819048 15.9949524,5.83053968 15.9949524,8.00253968 C15.9949524,10.1745079 15.985746,10.4468571 15.9468254,11.299873 C15.908,12.1511111 15.7727937,12.7324762 15.5751111,13.2411746 C15.3707302,13.7670794 15.0972698,14.2130794 14.6526667,14.6577143 C14.2080317,15.1023175 13.7620317,15.3757778 13.236127,15.5801587 C12.7274286,15.7778413 12.1460635,15.9130476 11.2948254,15.951873 C10.4418095,15.9907937 10.1694603,16 7.99749206,16 C5.82549206,16 5.55314286,15.9907937 4.70012698,15.951873 C3.84888889,15.9130476 3.26752381,15.7778413 2.7588254,15.5801587 C2.23292063,15.3757778 1.78692063,15.1023175 1.34228571,14.6577143 C0.89768254,14.2130794 0.624222222,13.7670794 0.419873016,13.2411746 C0.22215873,12.7324762 0.086952381,12.1511111 0.0481269841,11.299873 C0.00920634921,10.4468571 0,10.1745079 0,8.00253968 C0,5.83053968 0.00920634921,5.55819048 0.0481269841,4.7051746 C0.086952381,3.85393651 0.22215873,3.27257143 0.419873016,2.76387302 C0.624222222,2.23796825 0.89768254,1.79196825 1.34228571,1.34733333 C1.78692063,0.902730159 2.23292063,0.629269841 2.7588254,0.424920635 C3.26752381,0.227206349 3.84888889,0.092 4.70012698,0.0531746032 C5.55314286,0.0142539683 5.82549206,0.00504761905 7.99749206,0.00504761905 Z M7.99749206,1.44603175 C5.86206349,1.44603175 5.60911111,1.45419048 4.76580952,1.49266667 C3.98606349,1.52822222 3.56260317,1.65850794 3.28079365,1.76803175 C2.90749206,1.91311111 2.64107937,2.0864127 2.3612381,2.36628571 C2.08136508,2.64612698 1.90806349,2.91253968 1.76298413,3.28584127 C1.65346032,3.56765079 1.5231746,3.99111111 1.48761905,4.77085714 C1.44914286,5.61415873 1.44098413,5.86711111 1.44098413,8.00253968 C1.44098413,10.1379365 1.44914286,10.3908889 1.48761905,11.2341905 C1.5231746,12.0139365 1.65346032,12.4373968 1.76298413,12.7192063 C1.90806349,13.0925079 2.08139683,13.3589206 2.3612381,13.6387619 C2.64107937,13.9186349 2.90749206,14.0919365 3.28079365,14.2370159 C3.56260317,14.3465397 3.98606349,14.4768254 4.76580952,14.512381 C5.60901587,14.5508571 5.86190476,14.5590159 7.99749206,14.5590159 C10.1330476,14.5590159 10.3859683,14.5508571 11.2291429,14.512381 C12.0088889,14.4768254 12.4323492,14.3465397 12.7141587,14.2370159 C13.0874603,14.0919365 13.353873,13.9186349 13.6337143,13.6387619 C13.9135873,13.3589206 14.0868889,13.0925079 14.2319683,12.7192063 C14.3414921,12.4373968 14.4717778,12.0139365 14.5073333,11.2341905 C14.5458095,10.3908889 14.5539683,10.1379365 14.5539683,8.00253968 C14.5539683,5.86711111 14.5458095,5.61415873 14.5073333,4.77085714 C14.4717778,3.99111111 14.3414921,3.56765079 14.2319683,3.28584127 C14.0868889,2.91253968 13.9135873,2.64612698 13.6337143,2.36628571 C13.353873,2.0864127 13.0874603,1.91311111 12.7141587,1.76803175 C12.4323492,1.65850794 12.0088889,1.52822222 11.2291429,1.49266667 C10.3858413,1.45419048 10.1328889,1.44603175 7.99749206,1.44603175 Z M7.99749206,3.89571429 C10.265619,3.89571429 12.1042857,5.73438095 12.1042857,8.00253968 C12.1042857,10.2706667 10.265619,12.1093333 7.99749206,12.1093333 C5.72933333,12.1093333 3.89066667,10.2706667 3.89066667,8.00253968 C3.89066667,5.73438095 5.72933333,3.89571429 7.99749206,3.89571429 Z M7.99749206,10.6683492 C9.46977778,10.6683492 10.6633016,9.4748254 10.6633016,8.00253968 C10.6633016,6.53022222 9.46977778,5.33669841 7.99749206,5.33669841 C6.5251746,5.33669841 5.33165079,6.53022222 5.33165079,8.00253968 C5.33165079,9.4748254 6.5251746,10.6683492 7.99749206,10.6683492 Z M13.226254,3.73346032 C13.226254,4.26349206 12.7965714,4.69314286 12.2665397,4.69314286 C11.7365397,4.69314286 11.3068571,4.26349206 11.3068571,3.73346032 C11.3068571,3.20342857 11.7365397,2.77374603 12.2665397,2.77374603 C12.7965714,2.77374603 13.226254,3.20342857 13.226254,3.73346032 Z" id="icon" fill="#D93175"></path></g></svg>

<svg width="16" height="16" viewBox="0 0 16 16" xmlns="http://www.w3.org/2000/svg"><path d="M7.997.005c2.172 0 2.445.01 3.298.048.851.039 1.432.174 1.941.372a3.92 3.92 0 0 1 1.417.922c.444.445.718.891.922 1.417.198.509.333 1.09.372 1.941.039.853.048 1.126.048 3.298s-.01 2.444-.048 3.297c-.039.851-.174 1.432-.372 1.941a3.92 3.92 0 0 1-.922 1.417 3.92 3.92 0 0 1-1.417.922c-.509.198-1.09.333-1.941.372-.853.039-1.126.048-3.298.048s-2.444-.01-3.297-.048c-.851-.039-1.432-.174-1.941-.372a3.92 3.92 0 0 1-1.417-.922A3.92 3.92 0 0 1 .42 13.24c-.198-.509-.333-1.09-.372-1.941C.01 10.447 0 10.175 0 8.003s.01-2.445.048-3.298c.039-.851.174-1.432.372-1.941a3.92 3.92 0 0 1 .922-1.417A3.92 3.92 0 0 1 2.76.425C3.268.227 3.849.092 4.7.053 5.553.014 5.825.005 7.997.005zm0 1.441c-2.135 0-2.388.008-3.231.047-.78.035-1.203.166-1.485.275-.374.145-.64.318-.92.598-.28.28-.453.547-.598.92-.11.282-.24.705-.275 1.485-.039.843-.047 1.096-.047 3.232 0 2.135.008 2.388.047 3.231.035.78.165 1.203.275 1.485.145.374.318.64.598.92.28.28.546.453.92.598.282.11.705.24 1.485.275.843.039 1.096.047 3.231.047 2.136 0 2.389-.008 3.232-.047.78-.035 1.203-.165 1.485-.275.373-.145.64-.318.92-.598.28-.28.453-.546.598-.92.11-.282.24-.705.275-1.485.039-.843.047-1.096.047-3.231 0-2.136-.008-2.389-.047-3.232-.035-.78-.166-1.203-.275-1.485a2.478 2.478 0 0 0-.598-.92 2.478 2.478 0 0 0-.92-.598c-.282-.11-.705-.24-1.485-.275-.843-.039-1.096-.047-3.232-.047zm0 2.45a4.107 4.107 0 1 1 0 8.213 4.107 4.107 0 0 1 0-8.213zm0 6.772a2.666 2.666 0 1 0 0-5.331 2.666 2.666 0 0 0 0 5.331zm5.23-6.935a.96.96 0 1 1-1.92 0 .96.96 0 0 1 1.92 0z" fill="#D93175" fill-rule="evenodd"/></svg>
